SharedPackages/Infrastructure/DesignResourcesKitIcons/Sources/DesignResourcesKitIcons/DesignSystemImages.xcassets/Color/24px/Appearance-Color-24.imageset/Appearance-Color-24.svg

<svg width="24" height="24" viewBox="0 0 24 24" fill="none" xmlns="http://www.w3.org/2000/svg">
<path d="M22 12C22 12.8739 21.8854 13.7441 21.6593 14.5882L12 12H22Z" fill="#96C54E"/>
<path d="M21.6593 14.5882C21.4331 15.4323 21.0972 16.2432 20.6603 17L12 12L21.6593 14.5882Z" fill="#B5CB44"/>
<path d="M20.6603 17C20.2233 17.7568 19.689 18.4531 19.0711 19.0711L12 12L20.6603 17Z" fill="#D5D13B"/>
<path d="M19.0716 19.0711C18.4536 19.689 17.7573 20.2233 17.0005 20.6603L12.0005 12L19.0716 19.0711Z" fill="#F6D731"/>
<path d="M17.0005 20.6603C16.2437 21.0972 15.4328 21.4331 14.5887 21.6593L12.0005 12L17.0005 20.6603Z" fill="#FDCA34"/>
<path d="M14.5887 21.6593C13.7445 21.8854 12.8744 22 12.0005 22L12.0005 12L14.5887 21.6593Z" fill="#FAB63B"/>
<path d="M12.0005 21.9996C11.1266 21.9996 10.2564 21.8851 9.4123 21.6589L12.0005 11.9996L12.0005 21.9996Z" fill="#F7A243"/>
<path d="M9.41181 21.6591C8.56767 21.433 7.75683 21.0971 7 20.6601L12 11.9999L9.41181 21.6591Z" fill="#F49049"/>
<path d="M7.00049 20.6603C6.24366 20.2233 5.54737 19.689 4.92942 19.0711L12.0005 12L7.00049 20.6603Z" fill="#F17D51"/>
<path d="M4.92942 19.0711C4.31147 18.4531 3.77719 17.7568 3.34023 17L12.0005 12L4.92942 19.0711Z" fill="#DD7D73"/>
<path d="M3.34023 17C2.90328 16.2432 2.56742 15.4323 2.34123 14.5882L12.0005 12L3.34023 17Z" fill="#C67D98"/>
<path d="M2.34074 14.5883C2.11456 13.7442 2 12.874 2 12.0001L12 12.0001L2.34074 14.5883Z" fill="#B17DB9"/>
<path d="M2.00049 12C2.00049 11.1261 2.11505 10.2559 2.34123 9.41181L12.0005 12L2.00049 12Z" fill="#9F7ED7"/>
<path d="M2.34123 9.41181C2.56742 8.56768 2.90328 7.75683 3.34023 7L12.0005 12L2.34123 9.41181Z" fill="#8F7EE7"/>
<path d="M3.34023 7C3.77719 6.24317 4.31147 5.54688 4.92942 4.92893L12.0005 12L3.34023 7Z" fill="#8380EC"/>
<path d="M4.92942 4.92893C5.54737 4.31098 6.24366 3.7767 7.00049 3.33975L12.0005 12L4.92942 4.92893Z" fill="#7681F2"/>
<path d="M7 3.33975C7.75683 2.90279 8.56767 2.56693 9.41181 2.34074L12 12L7 3.33975Z" fill="#6A82F7"/>
<path d="M9.41181 2.34074C10.2559 2.11456 11.1261 2 12 2L12 12L9.41181 2.34074Z" fill="#5D84FD"/>
<path d="M12.0005 2.00037C12.8744 2.00037 13.7445 2.11492 14.5887 2.34111L12.0005 12.0004L12.0005 2.00037Z" fill="#5A8AEF"/>
<path d="M14.5887 2.34086C15.4328 2.56705 16.2437 2.90291 17.0005 3.33987L12.0005 12.0001L14.5887 2.34086Z" fill="#5D95CF"/>
<path d="M17 3.33975C17.7568 3.7767 18.4531 4.31098 19.0711 4.92893L12 12L17 3.33975Z" fill="#619FB0"/>
<path d="M19.0711 4.92893C19.689 5.54688 20.2233 6.24317 20.6603 7L12 12L19.0711 4.92893Z" fill="#65AA90"/>
<path d="M20.6603 7C21.0972 7.75683 21.4331 8.56767 21.6593 9.41181L12 12L20.6603 7Z" fill="#69B570"/>
<path d="M21.6597 9.41169C21.8859 10.2558 22.0005 11.126 22.0005 11.9999L12.0005 11.9999L21.6597 9.41169Z" fill="#76BF57"/>
<path fill-rule="evenodd" clip-rule="evenodd" d="M12 20.75C16.8325 20.75 20.75 16.8325 20.75 12C20.75 7.16751 16.8325 3.25 12 3.25C7.16751 3.25 3.25 7.16751 3.25 12C3.25 16.8325 7.16751 20.75 12 20.75ZM12 22C17.5228 22 22 17.5228 22 12C22 6.47715 17.5228 2 12 2C6.47715 2 2 6.47715 2 12C2 17.5228 6.47715 22 12 22Z" fill="#040B24" fill-opacity="0.3" style="mix-blend-mode:multiply"/>
</svg>

<svg fill="none" viewBox="0 0 24 24" xmlns="http://www.w3.org/2000/svg">
  <path fill="#96C54E" d="M22 12c0 .874-.115 1.744-.34 2.588L12 12h10Z"/>
  <path fill="#B5CB44" d="M21.66 14.588a10.003 10.003 0 0 1-1 2.412L12 12l9.66 2.588Z"/>
  <path fill="#D5D13B" d="M20.66 17a10.006 10.006 0 0 1-1.589 2.071L12 12l8.66 5Z"/>
  <path fill="#F6D731" d="M19.072 19.071A10.006 10.006 0 0 1 17 20.661L12 12l7.072 7.071Z"/>
  <path fill="#FDCA34" d="M17 20.66c-.756.437-1.567.773-2.411 1L12 12l5 8.66Z"/>
  <path fill="#FAB63B" d="M14.589 21.66a10.06 10.06 0 0 1-2.588.34V12l2.588 9.66Z"/>
  <path fill="#F7A243" d="M12 22a10 10 0 0 1-2.588-.341L12 11.999v10Z"/>
  <path fill="#F49049" d="M9.412 21.66a9.995 9.995 0 0 1-2.412-1L12 12l-2.588 9.66Z"/>
  <path fill="#F17D51" d="M7 20.66a10.003 10.003 0 0 1-2.07-1.589L12 12l-5 8.66Z"/>
  <path fill="#DD7D73" d="M4.93 19.071A10.002 10.002 0 0 1 3.34 17L12 12l-7.07 7.071Z"/>
  <path fill="#C67D98" d="M3.34 17a10 10 0 0 1-.999-2.412L12.001 12l-8.66 5Z"/>
  <path fill="#B17DB9" d="M2.34 14.588A10 10 0 0 1 2 12h10l-9.66 2.588Z"/>
  <path fill="#9F7ED7" d="M2 12a10 10 0 0 1 .341-2.588L12.001 12H2Z"/>
  <path fill="#8F7EE7" d="M2.341 9.412a10 10 0 0 1 1-2.412L12 12 2.34 9.412Z"/>
  <path fill="#8380EC" d="M3.34 7a10 10 0 0 1 1.59-2.071L12 12 3.34 7Z"/>
  <path fill="#7681F2" d="M4.93 4.929A10 10 0 0 1 7 3.339L12 12 4.93 4.929Z"/>
  <path fill="#6A82F7" d="M7 3.34a10 10 0 0 1 2.412-1L12 12 7 3.34Z"/>
  <path fill="#5D84FD" d="M9.412 2.34A10 10 0 0 1 12 2v10L9.412 2.34Z"/>
  <path fill="#5A8AEF" d="M12 2a10 10 0 0 1 2.589.341L12 12.001V2Z"/>
  <path fill="#5D95CF" d="M14.589 2.34a10 10 0 0 1 2.411 1L12 12l2.589-9.66Z"/>
  <path fill="#619FB0" d="M17 3.34a9.995 9.995 0 0 1 2.071 1.589L12 12l5-8.66Z"/>
  <path fill="#65AA90" d="M19.071 4.929A10.003 10.003 0 0 1 20.661 7L12 12l7.071-7.071Z"/>
  <path fill="#69B570" d="M20.66 7a10.04 10.04 0 0 1 1 2.412L12 12l8.66-5Z"/>
  <path fill="#76BF57" d="M21.66 9.412A10 10 0 0 1 22 12H12l9.66-2.588Z"/>
  <path fill="#040B24" fill-opacity=".6" fill-rule="evenodd" d="M12 20.75a8.75 8.75 0 1 0 0-17.5 8.75 8.75 0 0 0 0 17.5ZM12 22c5.523 0 10-4.477 10-10S17.523 2 12 2 2 6.477 2 12s4.477 10 10 10Z" clip-rule="evenodd" style="mix-blend-mode:multiply"/>
</svg>
